src/assets/svg/icons/fa/nuevos/classic/thin/meter-droplet classic thin.svg

<svg xmlns="http://www.w3.org/2000/svg" viewBox="0 0 640 512"><!--! Font Awesome Pro 6.4.0 by @fontawesome - https://fontawesome.com License - https://fontawesome.com/license (Commercial License) Copyright 2023 Fonticons, Inc. --><path d="M256 496c51.3 0 98.9-16.1 137.9-43.5c2 5.1 4.2 10 6.8 14.8C359.5 495.5 309.7 512 256 512C114.6 512 0 397.4 0 256S114.6 0 256 0C366.8 0 461.2 70.4 496.8 169c-4.9 3-9.3 6.8-13.1 11.2C452 84.8 362 16 256 16C123.5 16 16 123.5 16 256s107.5 240 240 240zM176 160c0-8.8-7.2-16-16-16s-16 7.2-16 16v32c0 8.8 7.2 16 16 16s16-7.2 16-16V160zm-48 0c0-17.7 14.3-32 32-32s32 14.3 32 32v32c0 17.7-14.3 32-32 32s-32-14.3-32-32V160zm144 32V160c0-8.8-7.2-16-16-16s-16 7.2-16 16v32c0 8.8 7.2 16 16 16s16-7.2 16-16zm-16-64c17.7 0 32 14.3 32 32v32c0 17.7-14.3 32-32 32s-32-14.3-32-32V160c0-17.7 14.3-32 32-32zm112 32c0-8.8-7.2-16-16-16s-16 7.2-16 16v32c0 8.8 7.2 16 16 16s16-7.2 16-16V160zm-48 0c0-17.7 14.3-32 32-32s32 14.3 32 32v32c0 17.7-14.3 32-32 32s-32-14.3-32-32V160zm96 240c0-18.4 4.5-36.5 13.2-52.7l75.3-141.2c4.6-8.7 13.7-14.1 23.5-14.1s18.9 5.4 23.5 14.1l75.3 141.2c8.7 16.2 13.2 34.3 13.2 52.7c0 61.9-50.1 112-112 112s-112-50.1-112-112zm27.3-45.2C435.9 368.7 432 384.2 432 400c0 53 43 96 96 96s96-43 96-96c0-15.8-3.9-31.3-11.3-45.2L537.4 213.6c-1.9-3.5-5.5-5.6-9.4-5.6s-7.6 2.2-9.4 5.6L443.3 354.8z"/></svg>

<svg xmlns="http://www.w3.org/2000/svg" viewBox="0 0 640 512"><path d="M256 496C307.3 496 354.9 479.9 393.9 452.5C395.8 457.6 398.1 462.5 400.6 467.3C359.5 495.5 309.7 512 256 512C114.6 512 0 397.4 0 256C0 114.6 114.6 0 256 0C366.8 0 461.2 70.43 496.8 168.1C491.1 172 487.6 175.8 483.8 180.1C452 84.76 362 16 255.1 16C123.5 16 15.1 123.5 15.1 256C15.1 388.5 123.5 496 255.1 496H256zM128 160C128 142.3 142.3 128 160 128C177.7 128 192 142.3 192 160V192C192 209.7 177.7 224 160 224C142.3 224 128 209.7 128 192V160zM160 144C151.2 144 144 151.2 144 160V192C144 200.8 151.2 208 160 208C168.8 208 176 200.8 176 192V160C176 151.2 168.8 144 160 144zM288 160V192C288 209.7 273.7 224 256 224C238.3 224 224 209.7 224 192V160C224 142.3 238.3 128 256 128C273.7 128 288 142.3 288 160zM272 192V160C272 151.2 264.8 144 256 144C247.2 144 240 151.2 240 160V192C240 200.8 247.2 208 256 208C264.8 208 272 200.8 272 192zM320 160C320 142.3 334.3 128 352 128C369.7 128 384 142.3 384 160V192C384 209.7 369.7 224 352 224C334.3 224 320 209.7 320 192V160zM352 144C343.2 144 336 151.2 336 160V192C336 200.8 343.2 208 352 208C360.8 208 368 200.8 368 192V160C368 151.2 360.8 144 352 144zM416 400C416 381.6 420.5 363.5 429.2 347.3L504.5 206.1C509.1 197.4 518.2 191.1 528 191.1C537.8 191.1 546.9 197.4 551.5 206.1L626.8 347.3C635.5 363.5 640 381.6 640 400C640 461.9 589.9 512 528 512C466.1 512 416 461.9 416 400H416zM432 400C432 453 474.1 496 528 496C581 496 624 453 624 400C624 384.2 620.1 368.7 612.7 354.8L537.4 213.6C535.6 210.2 531.9 208 528 208C524.1 208 520.4 210.2 518.6 213.6L443.3 354.8C435.9 368.7 432 384.2 432 400z"/></svg>
